X: 747
P: Longways for as many as will
M: 6/4
L: 1/4
K: Fdor
V: 1
c |\
|: c |\
cB=A cec | dB=A B2B | BG_A BdB | cAG A2c |\
dcB AGF | =EGB dfa | cBA GF=E | F3- F2 :|
V: 2 clef=bass middle=d
z |\
z3 zzc' | afb a2g | f2A Bcd | c2F c2z |\
f2B d2z | c2A d2z | B3 c3 | f3 F2 :|
|: z |\
zzf =A3 | B2f dfd | e2f g3 | a2e cBA |\

